svg/weather/heavy_snow_line.svg

<?xml version="1.0" encoding="UTF-8"?>
<svg width="24px" height="24px" viewBox="0 0 24 24" version="1.1" xmlns="http://www.w3.org/2000/svg" xmlns:xlink="http://www.w3.org/1999/xlink">
    <title>heavy_snow_line</title>
    <g id="Icon" stroke="none" stroke-width="1" fill="none" fill-rule="evenodd">
        <g id="Weather" transform="translate(-433.000000, -96.000000)" fill-rule="nonzero">
            <g id="heavy_snow_line" transform="translate(433.000000, 96.000000)">
                <path d="M24,0 L24,24 L0,24 L0,0 L24,0 Z M12.5935,23.2578 L12.5819,23.2595 L12.5109,23.295 L12.4919,23.2987 L12.4767,23.295 L12.4057,23.2595 C12.3958,23.2564 12.387,23.259 12.3821,23.2649 L12.378,23.2758 L12.3609,23.7031 L12.3659,23.7235 L12.3769,23.7357 L12.4805,23.8097 L12.4953,23.8136 L12.5071,23.8097 L12.6107,23.7357 L12.6233,23.7197 L12.6267,23.7031 L12.6096,23.2758 C12.6076,23.2657 12.601,23.2593 12.5935,23.2578 Z M12.8584,23.1453 L12.8445,23.1473 L12.6598,23.2397 L12.6499,23.2499 L12.6472,23.2611 L12.6651,23.6906 L12.6699,23.7034 L12.6784,23.7105 L12.8793,23.8032 C12.8914,23.8069 12.9022,23.803 12.9078,23.7952 L12.9118,23.7812 L12.8777,23.1665 C12.8753,23.1546 12.8674,23.147 12.8584,23.1453 Z M12.143,23.1473 C12.1332,23.1424 12.1222,23.1453 12.1156,23.1526 L12.1099,23.1665 L12.0758,23.7812 C12.0751,23.7927 12.0828,23.8019 12.0926,23.8046 L12.1083,23.8032 L12.3092,23.7105 L12.3186,23.7024 L12.3225,23.6906 L12.3404,23.2611 L12.3372,23.2485 L12.3278,23.2397 L12.143,23.1473 Z" id="MingCute"></path>
                <path d="M16.0001,16 C16.5524,16 17.0001,16.4477 17.0001,17 L17.0001,17.268 L17.2322,17.134 C17.7105,16.8578 18.3221,17.0217 18.5982,17.5 C18.8743,17.9783 18.7105,18.5899 18.2322,18.866 L18.0001,19 L18.2322,19.1339 C18.7105,19.4101 18.8743,20.0217 18.5982,20.5 C18.3221,20.9783 17.7105,21.1421 17.2322,20.866 L17.0001,20.732 L17.0001,21 C17.0001,21.5523 16.5524,22 16.0001,22 C15.4478,22 15.0001,21.5523 15.0001,21 L15.0001,20.7321 L14.7681,20.866 C14.2898,21.1422 13.6782,20.9783 13.402,20.5 C13.1259,20.0217 13.2898,19.4101 13.7681,19.134 L14.0001,19 L13.7681,18.866 C13.2898,18.5899 13.1259,17.9783 13.402,17.5 C13.6782,17.0217 14.2898,16.8578 14.7681,17.1339 L15.0001,17.2679 L15.0001,17 C15.0001,16.4477 15.4478,16 16.0001,16 Z M8.00011,16 C8.55239,16 9.00011,16.4477 9.00011,17 L9.00011,17.268 L9.23217,17.134 C9.71046,16.8578 10.3221,17.0217 10.5982,17.5 C10.8743,17.9783 10.7105,18.5899 10.2322,18.866 L10.0001,19 L10.2322,19.1339 C10.7105,19.4101 10.8743,20.0217 10.5982,20.5 C10.3221,20.9783 9.71046,21.1421 9.23217,20.866 L9.00011,20.732 L9.00011,21 C9.00011,21.5523 8.55239,22 8.00011,22 C7.44783,22 7.00011,21.5523 7.00011,21 L7.00011,20.7321 L6.76807,20.866 C6.28978,21.1422 5.67819,20.9783 5.40204,20.5 C5.1259,20.0217 5.28978,19.4101 5.76807,19.134 L6.00015,19 L5.76807,18.866 C5.28977,18.5899 5.1259,17.9783 5.40204,17.5 C5.67818,17.0217 6.28977,16.8578 6.76807,17.1339 L7.00011,17.2679 L7.00011,17 C7.00011,16.4477 7.44783,16 8.00011,16 Z M12.0001,10 C12.5524,10 13.0001,10.4477 13.0001,11 L13.0001,11.268 L13.2322,11.134 C13.7105,10.8578 14.3221,11.0217 14.5982,11.5 C14.8743,11.9783 14.7105,12.5899 14.2322,12.866 L14.0001,13 L14.2322,13.1339 C14.7105,13.4101 14.8743,14.0217 14.5982,14.5 C14.3221,14.9783 13.7105,15.1421 13.2322,14.866 L13.0001,14.732 L13.0001,15 C13.0001,15.5523 12.5524,16 12.0001,16 C11.4478,16 11.0001,15.5523 11.0001,15 L11.0001,14.7321 L10.7681,14.866 C10.2898,15.1422 9.67819,14.9783 9.40204,14.5 C9.1259,14.0217 9.28978,13.4101 9.76807,13.134 L10.0001,13 L9.76807,12.866 C9.28977,12.5899 9.1259,11.9783 9.40204,11.5 C9.67818,11.0217 10.2898,10.8578 10.7681,11.1339 L11.0001,11.2679 L11.0001,11 C11.0001,10.4477 11.4478,10 12.0001,10 Z M11.5,2 C14.2856,2 16.66,3.75154 17.5856,6.21198 C20.13,6.90766 22,9.23462 22,12 C22,13.3497 21.553,14.5978 20.7996,15.6007 C20.4678,16.0422 19.841,16.1312 19.3994,15.7995 C18.9579,15.4677 18.8689,14.8409 19.2006,14.3993 C19.7028,13.7309 20,12.9016 20,12 C20,10.0145 18.5524,8.36524 16.6552,8.05324 C16.2654,7.98914 15.9477,7.7033 15.8441,7.32051 C15.326,5.40663 13.576,4 11.5,4 C9.01472,4 7,6.01472 7,8.5 C7,8.66909 7.00928,8.83564 7.02729,8.99923 C7.08294,9.50471 6.75509,9.9678 6.26851,10.0896 C4.96468,10.4159 4,11.5965 4,13 C4,13.4698 4.10731673,13.9122694 4.29834764,14.3063749 L4.40073,14.4993 C4.67728,14.9773 4.51392,15.5891 4.03585,15.8656 C3.55779,16.1421 2.94607,15.9788 2.66952,15.5007 C2.24351,14.7643 2,13.9091 2,13 C2,10.9486 3.23468,9.18749 5.00053,8.41614 C5.04543,4.86494 7.93814,2 11.5,2 Z" id="形状" fill="#09244B"></path>
            </g>
        </g>
    </g>
</svg>

<svg xmlns="http://www.w3.org/2000/svg" width="24" height="24"><g fill="none" fill-rule="nonzero"><path d="M24 0v24H0V0h24ZM12.594 23.258l-.012.002-.071.035-.02.004-.014-.004-.071-.036c-.01-.003-.019 0-.024.006l-.004.01-.017.428.005.02.01.013.104.074.015.004.012-.004.104-.074.012-.016.004-.017-.017-.427c-.002-.01-.009-.017-.016-.018Zm.264-.113-.014.002-.184.093-.01.01-.003.011.018.43.005.012.008.008.201.092c.012.004.023 0 .029-.008l.004-.014-.034-.614c-.003-.012-.01-.02-.02-.022Zm-.715.002a.023.023 0 0 0-.027.006l-.006.014-.034.614c0 .012.007.02.017.024l.015-.002.201-.093.01-.008.003-.011.018-.43-.003-.012-.01-.01-.184-.092Z"/><path fill="#09244B" d="M16 16a1 1 0 0 1 1 1v.268l.232-.134a1 1 0 1 1 1 1.732L18 19l.232.134a1 1 0 0 1-1 1.732L17 20.732V21a1 1 0 1 1-2 0v-.268l-.232.134a1 1 0 1 1-1-1.732L14 19l-.232-.134a1 1 0 1 1 1-1.732l.232.134V17a1 1 0 0 1 1-1Zm-8 0a1 1 0 0 1 1 1v.268l.232-.134a1 1 0 1 1 1 1.732L10 19l.232.134a1 1 0 0 1-1 1.732L9 20.732V21a1 1 0 1 1-2 0v-.268l-.232.134a1 1 0 1 1-1-1.732L6 19l-.232-.134a1 1 0 1 1 1-1.732l.232.134V17a1 1 0 0 1 1-1Zm4-6a1 1 0 0 1 1 1v.268l.232-.134a1 1 0 1 1 1 1.732L14 13l.232.134a1 1 0 0 1-1 1.732L13 14.732V15a1 1 0 1 1-2 0v-.268l-.232.134a1 1 0 1 1-1-1.732L10 13l-.232-.134a1 1 0 1 1 1-1.732l.232.134V11a1 1 0 0 1 1-1Zm-.5-8a6.502 6.502 0 0 1 6.086 4.212 6.002 6.002 0 0 1 3.214 9.389 1 1 0 0 1-1.6-1.202 4.001 4.001 0 0 0-2.545-6.346 1.01 1.01 0 0 1-.81-.732A4.5 4.5 0 0 0 7.027 9a1.01 1.01 0 0 1-.76 1.09 3.002 3.002 0 0 0-1.97 4.216l.103.193a1 1 0 1 1-1.731 1.002A5 5 0 0 1 5 8.416 6.5 6.5 0 0 1 11.5 2Z"/></g></svg>
